src/svg/featured/redhat.svg

<svg fill="none" height="45" viewBox="0 0 189 45" width="189" xmlns="http://www.w3.org/2000/svg"><g fill="#fff"><path d="m48.7393 20.3584c0 4.5878-5.5806 5.3832-9.4376 5.3832v-.0123c-14.9967 0-26.1887-9.3205-26.1887-12.1632-.008-.2017.0149-.4034.0678-.5982.333-1.0606 2.926-8.37392 2.926-8.37392.9311-2.59297 2.1366-3.853998 3.9865-3.853998.9475 0 1.7988.417408 2.6643.841758.8948.43871 1.8047.88483 2.8516.88483 1.1169 0 1.7928-.63005 2.4389-1.23241.5917-.551608 1.1585-1.079985 2.0163-1.079985 1.927 0 8.4418 2.525135 11.4325 4.054405 3.854 1.927 4.3196 2.92287 4.8499 5.11811l2.2969 9.97721c.0751.3462.1072.7004.0956 1.0545z"/><path d="m49.8647 25.3439c0-.333 0-.5981-.5334-3.1233h.0062c6.1139 2.6577 9.5055 7.1099 9.5055 11.0317 0 4.9855-3.5211 11.2999-17.4818 11.2999-18.2093 0-41.206903-11.9628-41.206903-21.6687 0-5.9259 6.712123-6.8509 11.898103-7.1098-.308.7136-.4664 1.4827-.4656 2.2599 0 5.5837 12.6288 14.0317 27.0458 14.0224 6.3791 0 11.2321-2.3956 11.2321-6.7121z"/><path d="m184.97 34.0601c-4.02 0-6.225-1.782-6.225-5.448v-7.5538h-3.468v-4.3781h3.481v-4.4152l5.241-1.1346v5.5498h4.797v4.3781h-4.797v6.5148c0 1.557.614 2.075 2.269 2.075.803.0057 1.602-.115 2.368-.3577v4.2518c-1.198.3133-2.428.4871-3.666.5179z"/><path clip-rule="evenodd" d="m168.743 32.796c-1.393.9404-2.886 1.3289-4.735 1.3289l-.007.0092c-3.826 0-6.225-2.3-6.225-5.3154 0-3.3083 2.658-5.1582 7.07-5.1582 1.313-.0055 2.62.1582 3.891.4872v-.8417c0-1.7205-1.116-2.5622-3.274-2.5622-1.489 0-3.179.518-5.189 1.3628l-1.881-3.8602c2.793-1.2641 5.389-1.8807 8.016-1.8807 4.702 0 7.52 2.2939 7.52 6.4747v10.9947h-5.186zm-3.484-5.7717c-1.717 0-2.855.5519-2.855 1.6865 0 1.0699 1.008 1.7173 2.692 1.7173 1.144.017 2.273-.2623 3.277-.8108v-2.2045c-1.019-.252-2.064-.3824-3.114-.3885z" fill-rule="evenodd"/><path d="m141.078 33.8443h-5.578l.022-22.7077h5.577v8.7223h9.339v-8.7223h5.572v22.6985h-5.593v-8.8858h-9.339z"/><g clip-rule="evenodd" fill-rule="evenodd"><path d="m127.663 33.8474h-5.189l.012-1.2764c-1.336.9752-2.949 1.497-4.603 1.4891-1.157.0063-2.303-.218-3.373-.6597-1.069-.4417-2.039-1.092-2.855-1.9129-.815-.8209-1.458-1.7959-1.892-2.8682-.435-1.0723-.651-2.2203-.636-3.3771 0-4.93 3.925-8.7871 8.916-8.7871 1.534-.0132 3.044.3782 4.378 1.1346v-6.4531l5.242-1.1346zm-8.886-12.9525c-2.562 0-4.508 1.8807-4.508 4.3473v.0123c0 2.4635 1.98 4.3443 4.508 4.3443.665.0213 1.328-.0892 1.95-.3252.623-.236 1.192-.5929 1.676-1.05v-5.9968c-.999-.8835-2.293-1.3589-3.626-1.3319z"/><path d="m99.1586 34.1681c-5.2507 0-9.3359-3.891-9.3359-8.8858l.0062-.0093c-.01-1.1742.2149-2.3386.6614-3.4246.4465-1.0861 1.1057-2.0719 1.9388-2.8995.833-.8276 1.8231-1.4803 2.9121-1.9197s2.2548-.6566 3.4289-.6389c4.9949 0 8.6579 3.9219 8.6579 9.3699v1.3042h-12.2251c.3459.8266.9339 1.5292 1.6868 2.0151.7529.486 1.6353.7326 2.531.7073 1.4243 0 2.6243-.4532 3.4343-1.298l3.472 3.0832c-2.174 1.816-4.283 2.5961-7.1684 2.5961zm3.1014-10.7882c-.552-1.6525-1.945-2.7224-3.5978-2.7224-1.7389 0-3.0369 1.0174-3.5549 2.7224z"/><path d="m75.2577 33.8351h-5.5775v-22.6985h11.6175c4.8067 0 8.0163 3.1448 8.0163 7.2301.0056 1.3703-.399 2.7109-1.1616 3.8494-.7627 1.1385-1.8486 2.0227-3.1179 2.539l4.9948 9.08h-6.2435l-4.2826-8.2692h-4.2455zm8.4079-15.3698c0-1.3967-1.036-2.5621-2.8859-2.5621h-5.5159v5.1243h5.5159c1.8499 0 2.8859-1.1655 2.8859-2.5622z"/></g></g></svg>

<svg width="189" height="45" viewBox="0 0 189 45" fill="none" xmlns="http://www.w3.org/2000/svg">
<path d="M48.7393 20.3584C48.7393 24.9462 43.1587 25.7416 39.3017 25.7416V25.7293C24.305 25.7293 13.113 16.4088 13.113 13.5661C13.105 13.3644 13.1279 13.1627 13.1808 12.9679C13.5138 11.9073 16.1068 4.59398 16.1068 4.59398C17.0379 2.00101 18.2434 0.739982 20.0933 0.739982C21.0408 0.739982 21.8921 1.15739 22.7576 1.58174C23.6524 2.02045 24.5623 2.46657 25.6092 2.46657C26.7261 2.46657 27.402 1.83652 28.0481 1.23416C28.6398 0.682552 29.2066 0.154175 30.0644 0.154175C31.9914 0.154175 38.5062 2.67931 41.4969 4.20858C45.3509 6.13558 45.8165 7.13145 46.3468 9.32669L48.6437 19.3039C48.7188 19.6501 48.7509 20.0043 48.7393 20.3584Z" fill="white"/>
<path d="M49.8647 25.3439C49.8647 25.0109 49.8647 24.7458 49.3313 22.2206H49.3375C55.4514 24.8783 58.843 29.3305 58.843 33.2523C58.843 38.2378 55.3219 44.5522 41.3612 44.5522C23.1519 44.5522 0.154297 32.5894 0.154297 22.8835C0.154297 16.9576 6.86642 16.0326 12.0524 15.7737C11.7444 16.4873 11.586 17.2564 11.5868 18.0336C11.5868 23.6173 24.2156 32.0653 38.6326 32.056C45.0117 32.056 49.8647 29.6604 49.8647 25.3439Z" fill="white"/>
<path d="M184.97 34.0601C180.95 34.0601 178.745 32.2781 178.745 28.6121V21.0583H175.277V16.6802H178.758V12.265L183.999 11.1304V16.6802H188.796V21.0583H183.999V27.5731C183.999 29.1301 184.613 29.6481 186.268 29.6481C187.071 29.6538 187.87 29.5331 188.636 29.2904V33.5422C187.438 33.8555 186.208 34.0293 184.97 34.0601Z" fill="white"/>
<path fill-rule="evenodd" clip-rule="evenodd" d="M168.743 32.796C167.35 33.7364 165.857 34.1249 164.008 34.1249L164.001 34.1341C160.175 34.1341 157.776 31.8341 157.776 28.8187C157.776 25.5104 160.434 23.6605 164.846 23.6605C166.159 23.655 167.466 23.8187 168.737 24.1477V23.306C168.737 21.5855 167.621 20.7438 165.463 20.7438C163.974 20.7438 162.284 21.2618 160.274 22.1066L158.393 18.2464C161.186 16.9823 163.782 16.3657 166.409 16.3657C171.111 16.3657 173.929 18.6596 173.929 22.8404V33.8351H168.743V32.796ZM165.259 27.0243C163.542 27.0243 162.404 27.5762 162.404 28.7108C162.404 29.7807 163.412 30.4281 165.096 30.4281C166.24 30.4451 167.369 30.1658 168.373 29.6173V27.4128C167.354 27.1608 166.309 27.0304 165.259 27.0243Z" fill="white"/>
<path d="M141.078 33.8443H135.5L135.522 11.1366H141.099V19.8589H150.438V11.1366H156.01V33.8351H150.417V24.9493H141.078V33.8443Z" fill="white"/>
<path fill-rule="evenodd" clip-rule="evenodd" d="M127.663 33.8474H122.474L122.486 32.571C121.15 33.5462 119.537 34.068 117.883 34.0601C116.726 34.0664 115.58 33.8421 114.51 33.4004C113.441 32.9587 112.471 32.3084 111.655 31.4875C110.84 30.6666 110.197 29.6916 109.763 28.6193C109.328 27.547 109.112 26.399 109.127 25.2422C109.127 20.3122 113.052 16.4551 118.043 16.4551C119.577 16.4419 121.087 16.8333 122.421 17.5897V11.1366L127.663 10.002V33.8474ZM118.777 20.8949C116.215 20.8949 114.269 22.7756 114.269 25.2422V25.2545C114.269 27.718 116.249 29.5988 118.777 29.5988C119.442 29.6201 120.105 29.5096 120.727 29.2736C121.35 29.0376 121.919 28.6807 122.403 28.2236V22.2268C121.404 21.3433 120.11 20.8679 118.777 20.8949Z" fill="white"/>
<path fill-rule="evenodd" clip-rule="evenodd" d="M99.1586 34.1681C93.9079 34.1681 89.8227 30.2771 89.8227 25.2823L89.8289 25.273C89.8189 24.0988 90.0438 22.9344 90.4903 21.8484C90.9368 20.7623 91.596 19.7765 92.4291 18.9489C93.2621 18.1213 94.2522 17.4686 95.3412 17.0292C96.4302 16.5898 97.596 16.3726 98.7701 16.3903C103.765 16.3903 107.428 20.3122 107.428 25.7602V27.0644H95.2029C95.5488 27.891 96.1368 28.5936 96.8897 29.0795C97.6426 29.5655 98.525 29.8121 99.4207 29.7868C100.845 29.7868 102.045 29.3336 102.855 28.4888L106.327 31.572C104.153 33.388 102.044 34.1681 99.1586 34.1681ZM102.26 23.3799C101.708 21.7274 100.315 20.6575 98.6622 20.6575C96.9233 20.6575 95.6253 21.6749 95.1073 23.3799H102.26Z" fill="white"/>
<path fill-rule="evenodd" clip-rule="evenodd" d="M75.2577 33.8351H69.6802V11.1366H81.2977C86.1044 11.1366 89.314 14.2814 89.314 18.3667C89.3196 19.737 88.915 21.0776 88.1524 22.2161C87.3897 23.3546 86.3038 24.2388 85.0345 24.7551L90.0293 33.8351H83.7858L79.5032 25.5659H75.2577V33.8351ZM83.6656 18.4653C83.6656 17.0686 82.6296 15.9032 80.7797 15.9032H75.2638V21.0275H80.7797C82.6296 21.0275 83.6656 19.862 83.6656 18.4653Z" fill="white"/>
</svg>
